X:1
T:Title
%%score { ( 1 2 ) | ( 3 4 ) }
L:1/8
Q:1/4=100
M:3/4
K:F
V:1 treble nm="Grand Piano"
V:2 treble 
V:3 treble 
V:4 treble 
V:1
 z2 _A2 G2 | z2 z2 A2 | c4 B2 | A4 A2 | [^FA]2 z2 z2 | [B,DG]2 F2 E2 |[M:2/4] F4 |[M:1/4] A2 | %8
[M:3/4] z2 _A2 G2 | F4 A2 | A2 B2 [Fc]2 | [Fd]4 [Fd]2 | [Fc]2 [EB]2 [CFA]2 | %13
 [DGB]2 [CFA]2 [B,CG]2 | [A,CF]6 |] %15
V:2
 A2 z D z C | F4 z _E | x6 | x6 | D2- [DGB]2 [CDA]2 | x6 |[M:2/4] x4 |[M:1/4] x2 | %8
[M:3/4] A2 z D z C | x6 | x6 | x6 | C4 z2 | x6 | x6 |] %15
V:3
 [CF]2 .[=B,F]2 .[_B,E]2 | [A,C]4 .[CF]2 | [DF]4 [^CF]2 | [CF]4[K:bass] [F,CF]2 | D,2 G,,2 A,,2 | %5
 B,,2 [C,A,C]2 [C,G,C]2 |[M:2/4] [F,A,C]4 |[M:1/4][K:treble] [CF]2 |[M:3/4] F4 z2 | [A,C]4 [CF]2 | %10
 F4[K:bass] z2 | B,4 B,2 | A,2 G,2 F,2 | B,,2 C,2 C,2 | F,,6 |] %15
V:4
 x6 | x6 | x6 | x4[K:bass] x2 | x6 | x6 |[M:2/4] x4 |[M:1/4][K:treble] x2 | %8
[M:3/4] C2 =B,2 .[_B,E]2 | x6 | _E2 D2[K:bass] A,2 | x6 | x6 | x6 | x6 |] %15

